X: 18547
T: I Have No Money
R: reel
M: 4/4
K: Dmajor
(3FGA dB ~A3G|(3FGA dA FEEG|(3FGA dB ~A3f|afeg fedG|
(3FGA dB ~A3G|(3FGA dA FEEG|FAdB ~A3f|1 afeg fdd2:|2 afeg fedf||
|:afef dfaf|afeg fbbf|afef dcdB|(3AcA GA FADf|
afef dcdf|afeg fbbf|af (3gfe fdBd|A2AG FAD2:|

